static/logos/livestorm-glyph-color.svg

<svg width="50" height="50" viewBox="0 0 50 50" fill="none" xmlns="http://www.w3.org/2000/svg">
<g clip-path="url(#clip0_1_2131)">
<path d="M49.9978 25.1583C49.9978 32.019 50.228 40.0087 45.1212 45.1327C40.0148 50.2564 32.0208 49.9958 25.1601 49.9958C18.2994 49.9958 10.3097 50.226 5.18584 45.1196C0.0619979 40.0131 0.322532 32.019 0.322532 25.1583C0.322532 18.2976 0.0967355 10.3079 5.20322 5.18401C10.3097 0.0601674 18.3037 0.320701 25.1601 0.320701C32.0165 0.320701 40.0107 0.094905 45.1344 5.20138C50.2581 10.3079 49.9978 18.3019 49.9978 25.1583Z" fill="#12262B"/>
<path d="M27.9562 12.1748H12.068C10.6627 12.1748 9.52344 13.314 9.52344 14.7194C9.52344 16.1247 10.6627 17.2639 12.068 17.2639H27.9562C29.3615 17.2639 30.5008 16.1247 30.5008 14.7194C30.5008 13.314 29.3615 12.1748 27.9562 12.1748Z" fill="white"/>
<path d="M33.1592 22.6134H17.2711C15.8658 22.6134 14.7266 23.7526 14.7266 25.1579C14.7266 26.5632 15.8658 27.7025 17.2711 27.7025H33.1592C34.5647 27.7025 35.7038 26.5632 35.7038 25.1579C35.7038 23.7526 34.5647 22.6134 33.1592 22.6134Z" fill="white"/>
<path d="M27.9585 33.0564H22.4742C21.0689 33.0564 19.9297 34.1958 19.9297 35.6009C19.9297 37.0064 21.0689 38.1455 22.4742 38.1455H27.9585C29.3638 38.1455 30.503 37.0064 30.503 35.6009C30.503 34.1958 29.3638 33.0564 27.9585 33.0564Z" fill="white"/>
<path d="M40.7922 14.7194C40.7922 13.314 39.6528 12.1748 38.2477 12.1748C36.8422 12.1748 35.7031 13.314 35.7031 14.7194C35.7031 16.1247 36.8422 17.2639 38.2477 17.2639C39.6528 17.2639 40.7922 16.1247 40.7922 14.7194Z" fill="white"/>
</g>
<defs>
<clipPath id="clip0_1_2131">
<rect width="50" height="50" fill="white"/>
</clipPath>
</defs>
</svg>

<svg xmlns="http://www.w3.org/2000/svg" width="64" height="64" fill="none" viewBox="0 0 50 50"><g clip-path="url(#a)"><path fill="#12262B" d="M49.998 25.158c0 6.861.23 14.85-4.877 19.975-5.106 5.123-13.1 4.863-19.96 4.863-6.862 0-14.851.23-19.975-4.876C.062 40.013.323 32.019.323 25.158c0-6.86-.226-14.85 4.88-19.974C10.31.06 18.303.321 25.16.321c6.857 0 14.85-.226 19.974 4.88 5.124 5.107 4.864 13.1 4.864 19.957Z"/><path fill="#fff" d="M27.956 12.175H12.068a2.545 2.545 0 1 0 0 5.089h15.888a2.545 2.545 0 1 0 0-5.09ZM33.16 22.613H17.27a2.544 2.544 0 1 0 0 5.09H33.16a2.545 2.545 0 1 0 0-5.09ZM27.959 33.056h-5.485a2.545 2.545 0 0 0 0 5.09h5.485a2.544 2.544 0 1 0 0-5.09ZM40.792 14.72a2.545 2.545 0 1 0-5.09 0 2.545 2.545 0 0 0 5.09 0Z"/></g><defs><clipPath id="a"><path fill="#fff" d="M0 0h50v50H0z"/></clipPath></defs></svg>
